X:10
T: BALD SIND WIR AUF EWIG GESCHIEDEN
N: B0498
O: Europa, Mitteleuropa, Deutschland, Hochwald, Hellershausen
R: Abschieds - Lied
M: 4/4
L: 1/16
K: C
G4 | G4A3GG4A3G | G4F4z4
B2c2 | d2c2B2A2G4A3F | F4E4z4
C2E2 | G4G3GG2c2e2c2 | B2A2A4z4
c2A2 | G4E3GG4F3G | E8z4
C2E2 | G4G3GG2c2e2c2 | B2A2A4z4
c2A2 | G4E3GG4F3G | E8z4

@@@ Tune index: 2228
